src/lib/packages/icons/src/assets/filled/comments-text.svg

<svg width="24" height="24" viewBox="0 0 24 24" fill="none" xmlns="http://www.w3.org/2000/svg">
<path d="M20.8789 20.394C21.1189 20.594 20.9789 20.994 20.6689 20.994C19.6389 21.034 18.0591 20.894 17.0891 19.864C16.2991 20.144 15.419 20.2841 14.499 20.2841C12.481 20.2841 10.686 19.607 9.49902 18.368C9.31002 18.17 9.35802 17.785 9.79102 17.819C10.024 17.835 10.259 17.844 10.499 17.844C15.119 17.844 18.614 15.143 19.353 11.235C19.403 10.973 19.7291 10.886 19.8931 11.097C20.5931 12.003 20.998 13.1481 20.998 14.5031C20.998 16.0331 20.4679 17.314 19.5879 18.264C19.6989 18.964 20.0889 19.754 20.8789 20.394ZM17.998 9.67102C17.998 13.84 14.64 16.342 10.499 16.342C9.69802 16.342 8.92998 16.248 8.20898 16.067C7.96998 16.007 7.73608 15.937 7.50708 15.859C6.39008 17.051 4.56608 17.21 3.38208 17.168C3.02408 17.16 2.86489 16.701 3.13989 16.468C4.04789 15.734 4.49805 14.817 4.62305 14.016C3.60605 12.915 2.99805 11.439 2.99805 9.672C2.99805 5.503 6.35607 3.00098 10.4971 3.00098C14.5921 3.00098 17.915 5.45001 17.989 9.53601C17.992 9.58101 17.998 9.62402 17.998 9.67102ZM12.083 11.333C12.083 10.919 11.747 10.583 11.333 10.583H7.16699C6.75299 10.583 6.41699 10.919 6.41699 11.333C6.41699 11.747 6.75299 12.083 7.16699 12.083H11.333C11.747 12.083 12.083 11.748 12.083 11.333ZM14.583 8C14.583 7.586 14.247 7.25 13.833 7.25H7.16699C6.75299 7.25 6.41699 7.586 6.41699 8C6.41699 8.414 6.75299 8.75 7.16699 8.75H13.833C14.247 8.75 14.583 8.414 14.583 8Z" fill="currentColor"/>
</svg>

<svg xmlns="http://www.w3.org/2000/svg" width="24" height="24" fill="none"><path fill="currentColor" d="M20.879 20.394c.24.2.1.6-.21.6-1.03.04-2.61-.1-3.58-1.13-.79.28-1.67.42-2.59.42-2.018 0-3.813-.677-5-1.916-.189-.198-.141-.583.292-.549.233.016.468.025.708.025 4.62 0 8.115-2.701 8.854-6.609.05-.262.376-.349.54-.138.7.906 1.105 2.051 1.105 3.406 0 1.53-.53 2.811-1.41 3.761.11.7.5 1.49 1.29 2.13ZM17.998 9.671c0 4.169-3.358 6.671-7.499 6.671a9.402 9.402 0 0 1-2.29-.275 8.892 8.892 0 0 1-.702-.208c-1.117 1.192-2.94 1.351-4.125 1.309-.358-.008-.517-.467-.242-.7.908-.734 1.358-1.651 1.483-2.452-1.017-1.101-1.625-2.577-1.625-4.344 0-4.169 3.358-6.671 7.5-6.671 4.094 0 7.417 2.449 7.491 6.535.003.045.009.088.009.135Zm-5.915 1.662a.75.75 0 0 0-.75-.75H7.167a.75.75 0 0 0 0 1.5h4.166a.75.75 0 0 0 .75-.75ZM14.583 8a.75.75 0 0 0-.75-.75H7.167a.75.75 0 0 0 0 1.5h6.666a.75.75 0 0 0 .75-.75Z"/></svg>
